X:1
T:Title
%%score { ( 1 3 ) | 2 }
L:1/8
M:4/4
K:Ab
V:1 treble nm="Grand Piano"
V:3 treble 
V:2 bass 
V:1
 z4 z2[Q:1/4=104] [A,C]>[B,D] | [CE]2 [CA]2 [Ec]2 [CA]2 | A4 G2 z2 | G2 B2 F2 G2 |[M:3/4] [CA]6 | %5
[M:1/4] [A,C]>[B,D] |[M:4/4] [CE]2 [CA]2 [Ec]2 [_Ge]2 | [Fd]4 [DF]2 z2 | [=DB]4 c2 B2 | E6 z2 | %10
 [CA]4[K:bass] [CE]4 | [Ec]4 [EA]2- [CEA]2 | [FA]2 [=EG]2 [FA]2 [Fd]2 |[M:3/4] [Ec]6 | %14
[M:1/4] [Ec]>[Ec] |[M:4/4] [DB]4 [DF]4 | [Fd]4 z4 | %17
 [Ec]2 [EB]2 [DF]2 [DG]2[Q:1/4=102][Q:1/4=101][Q:1/4=99][Q:1/4=98][Q:1/4=96][Q:1/4=94][Q:1/4=93][Q:1/4=91][Q:1/4=89][Q:1/4=88][Q:1/4=86][Q:1/4=85][Q:1/4=83][Q:1/4=81][Q:1/4=80] | %18
[M:3/4] [CA]6 |] %19
V:2
 z4 z2 [A,,E,]>[A,,E,] | [A,,A,]2 [A,,A,]2 [A,,A,]2 [A,,A,]2 | [E,B,D]4 [E,B,D]2 z2 | %3
 [E,B,D]2 [E,G,D]2 [E,G,D]2 [E,B,D]2 |[M:3/4] [A,,A,]6 |[M:1/4] [A,,E,]>[A,,E,] | %6
[M:4/4] [A,,A,]2 [A,,A,]2 [A,,A,]2 [C,A,]2 | [D,A,]4 [D,A,]2 z2 | [B,,A,]4 [B,,A,]4 | [E,G,]6 z2 | %10
 [A,,E,]2 A,,2 A,,2 A,,2 | A,2 A,2 A,2 A,2 | [D,D]2 [D,D]2 [D,D]2 [D,A,]2 |[M:3/4] [A,,A,]6 | %14
[M:1/4] [A,,A,]>[A,,A,] |[M:4/4] [D,F,]2 D,2 D,2 D,2 | [D,A,]2 F,2 A,2 A,2 | %17
 [E,G,]2 [E,G,]2 [E,G,]2 [E,G,]2 |[M:3/4] [A,,A,]6 |] %19
V:3
 x8 | x8 | x8 | x8 |[M:3/4] x6 |[M:1/4] x2 |[M:4/4] x8 | x8 | z4 =D4 | x8 | %10
 z2[K:bass] E,2 A,2 A,2 | z4 C2 z2 | x8 |[M:3/4] x6 |[M:1/4] x2 |[M:4/4] z2 F,2 A,2 A,2 | %16
 z2 A,2 [Ec]4 | x8 |[M:3/4] x6 |] %19

